img/icons/newspaper-o.svg

<?xml version="1.0" encoding="utf-8"?>
<svg width="2048" height="1792" viewBox="0 0 2048 1792" xmlns="http://www.w3.org/2000/svg"><path d="M1024 512h-384v384h384v-384zm128 640v128h-640v-128h640zm0-768v640h-640v-640h640zm640 768v128h-512v-128h512zm0-256v128h-512v-128h512zm0-256v128h-512v-128h512zm0-256v128h-512v-128h512zm-1536 960v-960h-128v960q0 26 19 45t45 19 45-19 19-45zm1664 0v-1088h-1536v1088q0 33-11 64h1483q26 0 45-19t19-45zm128-1216v1216q0 80-56 136t-136 56h-1664q-80 0-136-56t-56-136v-1088h256v-128h1792z"/></svg>

<svg width="2048" height="1792" viewBox="0 0 2048 1792" xmlns="http://www.w3.org/2000/svg"><path d="M1024 512H640v384h384V512zm128 640v128H512v-128h640zm0-768v640H512V384h640zm640 768v128h-512v-128h512zm0-256v128h-512V896h512zm0-256v128h-512V640h512zm0-256v128h-512V384h512zM256 1344V384H128v960q0 26 19 45t45 19 45-19 19-45zm1664 0V256H384v1088q0 33-11 64h1483q26 0 45-19t19-45zm128-1216v1216q0 80-56 136t-136 56H192q-80 0-136-56T0 1344V256h256V128h1792z"/></svg>
